X: 109
T: Lan lan jun ma The roan horse
%%abc-version 2.0
%%abcx-abcm2ps-target-version 5.9.1 (29 Sep 2008)
%%abc-creator hum2abc beta
%%abcx-conversion-date 2013/10/02 07:44:27
%%abc-edited-by Helmut Schaffrath
%%humdrum-veritas 533418373
%%humdrum-veritas-data 3882701175
%%continueall 1
%%barnumbers 0
L: 1/8
M: 2/4
K: C
dd2c [I:setbarnb 1]| 
e d/ e/g2 | 
c> d d g | 
d2c e | 
A d/ c/ A c | 
d c A c | 
d3c | 
d> eg2 | 
G3A/ G/ | 
E2G A | 
c> d e g | 
d2c e | 
A d/ c/ A G | 
E D E G | 
A3d/ c/ | 
A4 |]  



